X: 36103
T: Schoolhouse
R: jig
M: 6/8
K: Eminor
|:EDE GFG|BAB e2f|gfe dBA|~G3 FED|
EDE GFG|BAB e2f|gfe dBG|1 AGF E2F:|2 AGF E2f||
|:gee Bee|gee Bee|gfe dBA|~G3 FED|
gee Bee|gee Bee|gfe dBG|1 AGF E2f:|2 AGF E2F||

